public/images/icons/TS.svg

<svg width="65" height="42" viewBox="0 0 65 42" fill="none" xmlns="http://www.w3.org/2000/svg">
<path d="M31.8125 6.76562H19.3984V41H12.5352V6.76562H0.230469V1.1875H31.8125V6.76562ZM57.4336 30.7461C57.4336 28.9961 56.8138 27.6471 55.5742 26.6992C54.3529 25.7513 52.138 24.7943 48.9297 23.8281C45.7214 22.862 43.1693 21.7865 41.2734 20.6016C37.6458 18.3229 35.832 15.3516 35.832 11.6875C35.832 8.47917 37.1354 5.83594 39.7422 3.75781C42.3672 1.67969 45.7669 0.640625 49.9414 0.640625C52.7122 0.640625 55.1823 1.15104 57.3516 2.17188C59.5208 3.19271 61.2253 4.65104 62.4648 6.54688C63.7044 8.42448 64.3242 10.5117 64.3242 12.8086H57.4336C57.4336 10.7305 56.7773 9.10807 55.4648 7.94141C54.1706 6.75651 52.3112 6.16406 49.8867 6.16406C47.6263 6.16406 45.8672 6.64714 44.6094 7.61328C43.3698 8.57943 42.75 9.92839 42.75 11.6602C42.75 13.1185 43.4245 14.3398 44.7734 15.3242C46.1224 16.2904 48.3464 17.2383 51.4453 18.168C54.5443 19.0794 57.0326 20.1276 58.9102 21.3125C60.7878 22.4792 62.1641 23.8281 63.0391 25.3594C63.9141 26.8724 64.3516 28.6497 64.3516 30.6914C64.3516 34.0091 63.0755 36.6523 60.5234 38.6211C57.9896 40.5716 54.5443 41.5469 50.1875 41.5469C47.3073 41.5469 44.6549 41.0182 42.2305 39.9609C39.8242 38.8854 37.9466 37.4089 36.5977 35.5312C35.2669 33.6536 34.6016 31.4661 34.6016 28.9688H41.5195C41.5195 31.2292 42.2669 32.9792 43.7617 34.2188C45.2565 35.4583 47.3984 36.0781 50.1875 36.0781C52.5938 36.0781 54.3984 35.5951 55.6016 34.6289C56.8229 33.6445 57.4336 32.3503 57.4336 30.7461Z" fill="white"/>
</svg>

<svg width="65" height="42" fill="none" xmlns="http://www.w3.org/2000/svg"><path d="M31.813 6.766H19.398V41h-6.863V6.766H.23V1.187h31.582v5.579zm25.62 23.98c0-1.75-.62-3.099-1.859-4.047-1.221-.948-3.436-1.905-6.644-2.87-3.209-.967-5.76-2.043-7.657-3.227-3.627-2.28-5.441-5.25-5.441-8.915 0-3.208 1.303-5.851 3.91-7.93C42.367 1.68 45.767.642 49.942.642c2.77 0 5.24.51 7.41 1.53 2.169 1.022 3.873 2.48 5.113 4.376 1.24 1.877 1.86 3.965 1.86 6.262h-6.891c0-2.079-.657-3.7-1.97-4.868-1.293-1.184-3.153-1.777-5.577-1.777-2.26 0-4.02.483-5.278 1.45-1.24.965-1.859 2.314-1.859 4.046 0 1.458.675 2.68 2.023 3.664 1.35.966 3.573 1.914 6.672 2.844 3.1.911 5.588 1.96 7.465 3.145 1.878 1.166 3.254 2.515 4.13 4.046.874 1.513 1.312 3.29 1.312 5.332 0 3.318-1.277 5.961-3.829 7.93-2.533 1.95-5.979 2.926-10.336 2.926-2.88 0-5.532-.529-7.956-1.586-2.407-1.076-4.284-2.552-5.633-4.43-1.331-1.877-1.996-4.065-1.996-6.562h6.918c0 2.26.747 4.01 2.242 5.25 1.495 1.24 3.636 1.86 6.425 1.86 2.407 0 4.211-.484 5.415-1.45 1.22-.984 1.832-2.279 1.832-3.883z" fill="#fff"/></svg>
